Obsidian-SemiLight/actions/16s/artifact.svg

<svg viewBox="0 0 16 16" xmlns="http://www.w3.org/2000/svg"><path d="m3 2v3h1 9v-1-2zm1 1h8v1h-8zm-1 5v1 5h7l3-3v-3h-9zm1 1h8v1h-3v3h-5z" fill="#4d4d4d"/><path d="m2 6v1h2v-1zm5 0v1h2v-1zm5 0v1h2v-1z" fill="#3daee9"/></svg>

<svg xmlns="http://www.w3.org/2000/svg" viewBox="0 0 16 16">
  <defs id="defs3051">
    <style type="text/css" id="current-color-scheme">
      .ColorScheme-Text {
        color:#4d4d4d;
      }
      .ColorScheme-Highlight {
        color:#3daee9;
      }
      </style>
  </defs>
 <path style="fill:currentColor;fill-opacity:1;stroke:none" 
       d="M 3 2 L 3 5 L 4 5 L 13 5 L 13 4 L 13 2 L 3 2 z M 4 3 L 12 3 L 12 4 L 4 4 L 4 3 z M 3 8 L 3 9 L 3 14 L 10 14 L 13 11 L 13 8 L 4 8 L 3 8 z M 4 9 L 12 9 L 12 10 L 9 10 L 9 13 L 4 13 L 4 9 z "
     class="ColorScheme-Text"
     />
 <path style="fill:currentColor;fill-opacity:1;stroke:none" 
       d="M 2 6 L 2 7 L 4 7 L 4 6 L 2 6 z M 7 6 L 7 7 L 9 7 L 9 6 L 7 6 z M 12 6 L 12 7 L 14 7 L 14 6 L 12 6 z "
     class="ColorScheme-Highlight"
     />
</svg>
